src/assets/img/svg_sources/icon_pinboard.svg

<svg width="30" height="30" viewBox="0 0 30 30" fill="none" xmlns="http://www.w3.org/2000/svg">
<rect width="30" height="30" fill="white"/>
<path fill-rule="evenodd" clip-rule="evenodd" d="M15 30C23.2843 30 30 23.2843 30 15C30 6.71573 23.2843 0 15 0C6.71573 0 0 6.71573 0 15C0 23.2843 6.71573 30 15 30ZM10.0836 13.525L14.5831 18.7166L14.391 21.2759L17.14 18.5246L22 22.0001L18.5142 17.1488L21.263 14.3975L18.7061 14.5896L13.5197 10.0858L13.4976 8.00029L8 13.5029L10.0836 13.525Z" fill="#929191"/>
</svg>

<svg width="30" height="30" viewBox="0 0 30 30" fill="none" xmlns="http://www.w3.org/2000/svg"><path fill="#fff" d="M0 0h30v30H0z"/><path fill-rule="evenodd" clip-rule="evenodd" d="M15 30c8.284 0 15-6.716 15-15 0-8.284-6.716-15-15-15C6.716 0 0 6.716 0 15c0 8.284 6.716 15 15 15zm-4.916-16.475l4.5 5.192-.193 2.559 2.749-2.751L22 22l-3.486-4.851 2.749-2.752-2.557.193-5.186-4.504L13.498 8 8 13.503l2.084.022z" fill="#929191"/></svg>
